public/flags/IQ.svg

<svg fill="none" height="53" viewBox="0 0 61 53" width="61" xmlns="http://www.w3.org/2000/svg" xmlns:xlink="http://www.w3.org/1999/xlink"><mask id="a" height="43" maskUnits="userSpaceOnUse" width="59" x="1" y="3"><rect fill="#fff" height="41.4393" rx="3.7125" stroke="#fff" stroke-width="1.06071" width="57.9393" x="1.53036" y="3.53036"/></mask><rect fill="#fff" height="41.4393" rx="3.7125" stroke="#f5f5f5" stroke-width="1.06071" width="57.9393" x="1.53036" y="3.53036"/><g clip-rule="evenodd" fill-rule="evenodd" mask="url(#a)"><path d="m1 17.1667h59v-14.1667h-59z" fill="#df1e35"/><path d="m1 45.5h59v-14.1667h-59z" fill="#262626"/><g fill="#0f7a40"><path d="m40.3335 21.1485c0-.5267.5552-.8685 1.0255-.6314l1.3953.7035c.2384.1202.3887.3645.3887.6315v5.9408c0 .3905-.3166.7071-.7071.7071h-1.3953c-.3905 0-.7071-.3166-.7071-.7071z"/><path d="m23.4761 21.1485c0-.5267.5552-.8685 1.0255-.6314l1.3952.7035c.2384.1202.3888.3645.3888.6315v5.9408c0 .3905-.3166.7071-.7071.7071h-1.3953c-.3905 0-.7071-.3166-.7071-.7071z"/><path d="m34.7144 21.8521c0-.267.1503-.5113.3887-.6315l1.3953-.7035c.4703-.2371 1.0255.1047 1.0255.6314v6.6444c0 .3905-.3166.7071-.7072.7071h-1.3952c-.3905 0-.7071-.3166-.7071-.7071z"/><path d="m29.0952 24.6854c0-.267.1504-.5112.3888-.6314l1.3952-.7035c.4703-.2372 1.0255.1047 1.0255.6314v1.8117h4.2143v2.7064h-4.2143-2.1023c-.3906 0-.7072-.3166-.7072-.7071z"/><path d="m17.8574 24.6854c0-.267.1504-.5112.3888-.6314l1.3952-.7035c.4703-.2372 1.0255.1047 1.0255.6314v1.8117h4.2143v2.7064h-4.2143-2.1023c-.3906 0-.7072-.3166-.7072-.7071z"/></g></g></svg>

<svg width="61" height="53" viewBox="0 0 61 53" fill="none" xmlns="http://www.w3.org/2000/svg">
<rect x="1.53036" y="3.53036" width="57.9393" height="41.4393" rx="3.7125" fill="white" stroke="#F5F5F5" stroke-width="1.06071"/>
<mask id="mask0" mask-type="alpha" maskUnits="userSpaceOnUse" x="1" y="3" width="59" height="43">
<rect x="1.53036" y="3.53036" width="57.9393" height="41.4393" rx="3.7125" fill="white" stroke="white" stroke-width="1.06071"/>
</mask>
<g mask="url(#mask0)">
<path fill-rule="evenodd" clip-rule="evenodd" d="M1 17.1667H60V3H1V17.1667Z" fill="#DF1E35"/>
<path fill-rule="evenodd" clip-rule="evenodd" d="M1 45.5H60V31.3333H1V45.5Z" fill="#262626"/>
<path fill-rule="evenodd" clip-rule="evenodd" d="M40.3335 21.1485C40.3335 20.6218 40.8887 20.28 41.359 20.5171L42.7543 21.2206C42.9927 21.3408 43.143 21.5851 43.143 21.8521V27.7929C43.143 28.1834 42.8264 28.5 42.4359 28.5H41.0406C40.6501 28.5 40.3335 28.1834 40.3335 27.7929V21.1485Z" fill="#0F7A40"/>
<path fill-rule="evenodd" clip-rule="evenodd" d="M23.4761 21.1485C23.4761 20.6218 24.0313 20.28 24.5016 20.5171L25.8968 21.2206C26.1352 21.3408 26.2856 21.5851 26.2856 21.8521V27.7929C26.2856 28.1834 25.969 28.5 25.5785 28.5H24.1832C23.7927 28.5 23.4761 28.1834 23.4761 27.7929V21.1485Z" fill="#0F7A40"/>
<path fill-rule="evenodd" clip-rule="evenodd" d="M34.7144 21.8521C34.7144 21.5851 34.8647 21.3408 35.1031 21.2206L36.4984 20.5171C36.9687 20.28 37.5239 20.6218 37.5239 21.1485V27.7929C37.5239 28.1834 37.2073 28.5 36.8167 28.5H35.4215C35.031 28.5 34.7144 28.1834 34.7144 27.7929V21.8521Z" fill="#0F7A40"/>
<path fill-rule="evenodd" clip-rule="evenodd" d="M29.0952 24.6854C29.0952 24.4184 29.2456 24.1742 29.484 24.054L30.8792 23.3505C31.3495 23.1133 31.9047 23.4552 31.9047 23.9819V25.7936H36.119V28.5H31.9047H29.8024C29.4118 28.5 29.0952 28.1834 29.0952 27.7929V24.6854Z" fill="#0F7A40"/>
<path fill-rule="evenodd" clip-rule="evenodd" d="M17.8574 24.6854C17.8574 24.4184 18.0078 24.1742 18.2462 24.054L19.6414 23.3505C20.1117 23.1133 20.6669 23.4552 20.6669 23.9819V25.7936H24.8812V28.5H20.6669H18.5646C18.174 28.5 17.8574 28.1834 17.8574 27.7929V24.6854Z" fill="#0F7A40"/>
</g>
</svg>
